Newaita-dark/actions/16/window-close.svg

<svg height="16" viewBox="0 0 16 16" width="16" xmlns="http://www.w3.org/2000/svg"><g fill="#f44336"><path d="m2.792969 14.144531 11.226562-11.226562c.128907-.128907.128907-.339844 0-.46875l-.46875-.46875c-.128906-.128907-.339843-.128907-.46875 0l-11.226562 11.226562c-.128907.128907-.128907.339844 0 .46875l.46875.46875c.128906.128907.339843.128907.46875 0zm0 0"/><path d="m1.855469 2.917969 11.226562 11.226562c.128907.128907.339844.128907.46875 0l.46875-.46875c.128907-.128906.128907-.339843 0-.46875l-11.226562-11.226562c-.128907-.128907-.339844-.128907-.46875 0l-.46875.46875c-.128907.128906-.128907.339843 0 .46875zm0 0"/></g></svg>

<svg xmlns="http://www.w3.org/2000/svg" xmlns:xlink="http://www.w3.org/1999/xlink" width="16px" height="16px" viewBox="0 0 16 16" version="1.1">
<g id="surface1">
<path style=" stroke:none;fill-rule:nonzero;fill:rgb(95.686275%,26.274511%,21.176471%);fill-opacity:1;" d="M 2.792969 14.144531 L 14.019531 2.917969 C 14.148438 2.789062 14.148438 2.578125 14.019531 2.449219 L 13.550781 1.980469 C 13.421875 1.851562 13.210938 1.851562 13.082031 1.980469 L 1.855469 13.207031 C 1.726562 13.335938 1.726562 13.546875 1.855469 13.675781 L 2.324219 14.144531 C 2.453125 14.273438 2.664062 14.273438 2.792969 14.144531 Z M 2.792969 14.144531 "/>
<path style=" stroke:none;fill-rule:nonzero;fill:rgb(95.686275%,26.274511%,21.176471%);fill-opacity:1;" d="M 1.855469 2.917969 L 13.082031 14.144531 C 13.210938 14.273438 13.421875 14.273438 13.550781 14.144531 L 14.019531 13.675781 C 14.148438 13.546875 14.148438 13.335938 14.019531 13.207031 L 2.792969 1.980469 C 2.664062 1.851562 2.453125 1.851562 2.324219 1.980469 L 1.855469 2.449219 C 1.726562 2.578125 1.726562 2.789062 1.855469 2.917969 Z M 1.855469 2.917969 "/>
</g>
</svg>
